static/images/testing.svg

<svg width="107" height="107" viewBox="0 0 107 107" fill="none" xmlns="http://www.w3.org/2000/svg">
<path d="M49.3748 30.2604C45.9422 33.9144 45.9422 39.6949 49.3748 43.3486C51.6147 45.7339 54.7653 46.7069 57.7502 46.2676C59.0457 46.0767 60.2013 47.102 60.2013 48.4112V55.4079C60.2013 58.0567 58.0544 60.2036 55.4056 60.2036H48.4089C47.0997 60.2036 46.0744 59.0482 46.2653 57.7525C46.7044 54.7676 45.7315 51.6172 43.3463 49.3771C39.6925 45.9445 33.9118 45.9445 30.2581 49.3771C27.8728 51.617 26.9 54.7674 27.3391 57.7525C27.53 59.048 26.5047 60.2036 25.1955 60.2036H18.1981C15.5494 60.2036 13.4024 58.0567 13.4024 55.4079V48.4112C13.4024 47.102 12.2454 46.0767 10.9496 46.2676C7.96641 46.7067 4.81432 45.7339 2.57445 43.3486C-0.858151 39.6947 -0.858151 33.9141 2.57445 30.2604C4.81432 27.8751 7.96662 26.9021 10.9496 27.3414C12.2454 27.5323 13.4024 26.507 13.4024 25.1978V18.2009C13.4024 15.5521 15.5494 13.4052 18.1981 13.4052H25.1949C26.5041 13.4052 27.5294 12.2481 27.3385 10.9524C26.8993 7.96916 27.8722 4.81706 30.2575 2.57698C33.9112 -0.855618 39.6919 -0.855618 43.3457 2.57698C45.7309 4.81706 46.7038 7.96916 46.2647 10.9524C46.0737 12.2479 47.099 13.4052 48.4082 13.4052H55.405C58.0537 13.4052 60.2007 15.5521 60.2007 18.2009V25.1976C60.2007 26.5068 59.0453 27.5321 57.7495 27.3412C54.7653 26.9023 51.6147 27.8751 49.3748 30.2604Z" fill="url(#paint0_linear)"/>
<path d="M2.5742 43.3476C4.81406 45.7328 7.96616 46.7057 10.9496 46.2666C12.2453 46.0757 13.4024 47.101 13.4024 48.4101V55.4069C13.4024 58.0557 15.5493 60.2026 18.1981 60.2026H25.1948C26.504 60.2026 27.5293 59.0472 27.3384 57.7515C26.8993 54.7666 27.8721 51.6162 30.2574 49.3761C33.9111 45.9435 39.6919 45.9435 43.3456 49.3761C45.7309 51.6159 46.7037 54.7664 46.2646 57.7515C46.0737 59.047 47.099 60.2026 48.4082 60.2026H55.4049C58.0537 60.2026 60.2006 58.0557 60.2006 55.4069V48.4101C60.2006 47.101 59.0452 46.0757 57.7495 46.2666C54.7646 46.7057 51.6142 45.7328 49.3741 43.3476C48.3136 42.2186 47.5818 40.8866 47.1766 39.4771H0.376709C0.78205 40.8866 1.51385 42.2188 2.5742 43.3476V43.3476Z" fill="url(#paint1_linear)"/>
<path d="M49.3748 77.0549C45.9422 80.7088 45.9422 86.4893 49.3748 90.1431C51.6147 92.5283 54.7653 93.5014 57.7502 93.0621C59.0457 92.8712 60.2013 93.8965 60.2013 95.2057V102.202C60.2013 104.851 58.0544 106.998 55.4056 106.998H48.4089C47.0997 106.998 46.0744 105.843 46.2653 104.547C46.7044 101.562 45.7315 98.4117 43.3463 96.1716C39.6925 92.739 33.9118 92.739 30.2581 96.1716C27.8728 98.4115 26.9 101.562 27.3391 104.547C27.53 105.843 26.5047 106.998 25.1955 106.998H18.1981C15.5494 106.998 13.4024 104.851 13.4024 102.202V95.2057C13.4024 93.8965 12.2454 92.8712 10.9496 93.0621C7.96641 93.5012 4.81432 92.5283 2.57445 90.1431C-0.858151 86.4891 -0.858151 80.7086 2.57445 77.0549C4.81432 74.6696 7.96662 73.6965 10.9496 74.1359C12.2454 74.3268 13.4024 73.3015 13.4024 71.9923V64.9956C13.4024 62.3468 15.5494 60.1999 18.1981 60.1999H25.1949C26.5041 60.1999 27.5294 59.0428 27.3385 57.747C26.8993 54.7638 27.8722 51.6117 30.2575 49.3717C33.9112 45.9391 39.6919 45.9391 43.3457 49.3717C45.7309 51.6117 46.7038 54.7638 46.2647 57.747C46.0737 59.0426 47.099 60.1999 48.4082 60.1999H55.405C58.0537 60.1999 60.2007 62.3468 60.2007 64.9956V71.9923C60.2007 73.3015 59.0453 74.3268 57.7495 74.1359C54.7653 73.6965 51.6147 74.6696 49.3748 77.0549Z" fill="url(#paint2_linear)"/>
<path d="M96.1737 77.0549C92.7411 80.7088 92.7411 86.4893 96.1737 90.1431C98.4136 92.5283 101.564 93.5014 104.549 93.0621C105.845 92.8712 107 93.8965 107 95.2057V102.202C107 104.851 104.853 106.998 102.205 106.998H95.2078C93.8986 106.998 92.8733 105.843 93.0642 104.547C93.5033 101.562 92.5305 98.4117 90.1452 96.1716C86.4915 92.739 80.7108 92.739 77.057 96.1716C74.6718 98.4115 73.6989 101.562 74.138 104.547C74.3289 105.843 73.3036 106.998 71.9944 106.998H64.9977C62.3489 106.998 60.202 104.851 60.202 102.202V95.2057C60.202 93.8965 59.0449 92.8712 57.7492 93.0621C54.766 93.5012 51.6139 92.5283 49.374 90.1431C45.9414 86.4891 45.9414 80.7086 49.374 77.0549C51.6139 74.6696 54.7662 73.6965 57.7492 74.1359C59.0449 74.3268 60.202 73.3015 60.202 71.9923V64.9956C60.202 62.3468 62.3489 60.1999 64.9977 60.1999H71.9944C73.3036 60.1999 74.3289 59.0428 74.138 57.747C73.6989 54.7638 74.6718 51.6117 77.057 49.3717C80.7108 45.9391 86.4915 45.9391 90.1452 49.3717C92.5305 51.6117 93.5033 54.7638 93.0642 57.747C92.8733 59.0426 93.8986 60.1999 95.2078 60.1999H102.205C104.853 60.1999 107 62.3468 107 64.9956V71.9923C107 73.3015 105.845 74.3268 104.549 74.1359C101.564 73.6965 98.4136 74.6696 96.1737 77.0549Z" fill="url(#paint3_linear)"/>
<path d="M57.7503 74.1357C59.0458 74.3266 60.2014 73.3013 60.2014 71.9921V64.9954C60.2014 62.3466 58.0545 60.1997 55.4057 60.1997H48.409C47.0998 60.1997 46.0745 59.0426 46.2654 57.7469C46.7045 54.7637 45.7317 51.6116 43.3464 49.3715C41.5307 47.666 39.1902 46.8087 36.846 46.798C36.0882 48.848 35.6755 51.1114 35.6755 53.5357C35.6755 59.1284 37.1895 64.1478 41.0654 67.5917L49.9607 76.4872C52.1454 74.5198 55.0161 73.7335 57.7503 74.1357V74.1357Z" fill="url(#paint4_linear)"/>
<path d="M95.2073 106.998H102.204C104.853 106.998 107 104.851 107 102.203V95.2058C107 93.8967 105.844 92.8713 104.549 93.0623C101.564 93.5014 98.4133 92.5285 96.1733 90.1433C92.7407 86.4895 92.7407 80.7088 96.1733 77.0551C97.4927 75.65 99.129 74.739 100.86 74.314L76.496 49.949C74.5234 52.1352 73.7347 55.011 74.1376 57.7468C74.3285 59.0424 73.3032 60.1996 71.994 60.1996H64.9972C62.3485 60.1996 60.2015 62.3466 60.2015 64.9953V71.9921C60.2015 73.3013 59.0445 74.3266 57.7487 74.1356C55.0167 73.7335 52.1449 74.5194 49.96 76.4863L74.3188 100.845C74.7451 99.1189 75.6551 97.4879 77.0566 96.1718C80.7103 92.7392 86.491 92.7392 90.1447 96.1718C92.53 98.4116 93.5031 101.562 93.0638 104.547C92.8728 105.843 93.8981 106.998 95.2073 106.998V106.998Z" fill="url(#paint5_linear)"/>
<path d="M53.4999 72.3011C63.8835 72.3011 72.3011 63.8836 72.3011 53.5C72.3011 43.1164 63.8835 34.6988 53.4999 34.6988C43.1163 34.6988 34.6987 43.1164 34.6987 53.5C34.6987 63.8836 43.1163 72.3011 53.4999 72.3011Z" fill="url(#paint6_linear)"/>
<path d="M50.4326 62.4317C48.8014 62.4317 47.2678 61.7965 46.1145 60.6432L40.9214 55.4501C39.8354 54.3644 39.8354 52.6037 40.9214 51.5178C42.0071 50.4318 43.7678 50.4318 44.8537 51.5178L50.0468 56.7108C50.179 56.843 50.3296 56.8707 50.4326 56.8707C50.5357 56.8707 50.6863 56.843 50.8185 56.7108L62.1466 45.3829C63.2326 44.2969 64.993 44.2969 66.079 45.3829C67.1647 46.4686 67.1647 48.2293 66.079 49.3152L54.751 60.6432C53.5973 61.7965 52.0639 62.4317 50.4326 62.4317V62.4317Z" fill="white"/>
<path d="M2.5742 90.1431C4.81406 92.5283 7.96616 93.5012 10.9496 93.0621C12.2453 92.8712 13.4024 93.8965 13.4024 95.2057V102.202C13.4024 104.851 15.5493 106.998 18.1981 106.998H25.1948C26.504 106.998 27.5293 105.843 27.3384 104.547C26.8993 101.562 27.8721 98.4117 30.2574 96.1716C33.9111 92.739 39.6919 92.739 43.3456 96.1716C45.7309 98.4115 46.7037 101.562 46.2646 104.547C46.0737 105.843 47.099 106.998 48.4082 106.998H55.4049C58.0537 106.998 60.2006 104.851 60.2006 102.202V95.2057C60.2006 93.8965 59.0452 92.8712 57.7495 93.0621C54.7646 93.5012 51.6142 92.5283 49.3741 90.1431C48.3136 89.0141 47.5818 87.6821 47.1766 86.2726H0.376709C0.78205 87.6821 1.51385 89.0141 2.5742 90.1431V90.1431Z" fill="url(#paint7_linear)"/>
<path d="M48.9963 90.1431C51.2362 92.5283 54.3883 93.5012 57.3717 93.0621C58.6674 92.8712 59.8245 93.8965 59.8245 95.2057V102.202C59.8245 104.851 61.9714 106.998 64.6202 106.998H71.617C72.9261 106.998 73.9514 105.843 73.7605 104.547C73.3214 101.562 74.2943 98.4117 76.6795 96.1716C80.3333 92.739 86.114 92.739 89.7677 96.1716C92.153 98.4115 93.1258 101.562 92.6867 104.547C92.4958 105.843 93.5211 106.998 94.8303 106.998H101.827C104.476 106.998 106.623 104.851 106.623 102.202V95.2057C106.623 93.8965 105.467 92.8712 104.172 93.0621C101.187 93.5012 98.0363 92.5283 95.7962 90.1431C94.7357 89.0141 94.0039 87.6821 93.5987 86.2726H46.7988C47.204 87.6821 47.9358 89.0141 48.9963 90.1431V90.1431Z" fill="url(#paint8_linear)"/>
<path d="M83.4661 23.5339C81.9039 21.9717 81.9039 19.4388 83.4661 17.8763L91.135 10.2074C92.6972 8.64519 95.2302 8.64519 96.7926 10.2074C98.3548 11.7696 98.3548 14.3025 96.7926 15.865L89.1237 23.5339C87.5612 25.0961 85.0283 25.0961 83.4661 23.5339V23.5339Z" fill="url(#paint9_linear)"/>
<path d="M67.4385 21.8597C65.2291 21.8597 63.438 20.0686 63.438 17.8591V7.01354C63.438 4.8041 65.2291 3.013 67.4385 3.013C69.648 3.013 71.4391 4.8041 71.4391 7.01354V17.8589C71.4391 20.0686 69.648 21.8597 67.4385 21.8597Z" fill="url(#paint10_linear)"/>
<path d="M85.1404 39.5615C85.1404 37.352 86.9315 35.5609 89.1409 35.5609H99.9863C102.196 35.5609 103.987 37.352 103.987 39.5615C103.987 41.7709 102.196 43.562 99.9863 43.562H89.1409C86.9315 43.562 85.1404 41.7709 85.1404 39.5615Z" fill="url(#paint11_linear)"/>
<defs>
<linearGradient id="paint0_linear" x1="19.4509" y1="19.4536" x2="47.4626" y2="47.4654" gradientUnits="userSpaceOnUse">
<stop stop-color="#7ACBFF"/>
<stop offset="1" stop-color="#45A2E0"/>
</linearGradient>
<linearGradient id="paint1_linear" x1="30.2889" y1="44.2688" x2="30.2889" y2="60.6805" gradientUnits="userSpaceOnUse">
<stop stop-color="#2F73A0" stop-opacity="0"/>
<stop offset="1" stop-color="#2F73A0"/>
</linearGradient>
<linearGradient id="paint2_linear" x1="19.4509" y1="66.2479" x2="47.4626" y2="94.2599" gradientUnits="userSpaceOnUse">
<stop stop-color="#FFCE47"/>
<stop offset="1" stop-color="#FF9356"/>
</linearGradient>
<linearGradient id="paint3_linear" x1="57.4122" y1="57.4105" x2="88.7658" y2="88.764" gradientUnits="userSpaceOnUse">
<stop stop-color="#FF755C"/>
<stop offset="1" stop-color="#FF4181"/>
</linearGradient>
<linearGradient id="paint4_linear" x1="75.1097" y1="89.7946" x2="58.2773" y2="72.9622" gradientUnits="userSpaceOnUse">
<stop stop-color="#FF9356" stop-opacity="0"/>
<stop offset="1" stop-color="#FF755C"/>
</linearGradient>
<linearGradient id="paint5_linear" x1="78.7855" y1="78.7755" x2="52.0416" y2="52.0315" gradientUnits="userSpaceOnUse">
<stop stop-color="#843561" stop-opacity="0"/>
<stop offset="1" stop-color="#3A2F4D"/>
</linearGradient>
<linearGradient id="paint6_linear" x1="45.4392" y1="45.4393" x2="63.3191" y2="63.3192" gradientUnits="userSpaceOnUse">
<stop stop-color="#E4E08E"/>
<stop offset="1" stop-color="#6FA953"/>
</linearGradient>
<linearGradient id="paint7_linear" x1="30.2889" y1="91.4709" x2="30.2889" y2="104.373" gradientUnits="userSpaceOnUse">
<stop stop-color="#FF9356" stop-opacity="0"/>
<stop offset="1" stop-color="#FF755C"/>
</linearGradient>
<linearGradient id="paint8_linear" x1="76.711" y1="96.1911" x2="76.711" y2="112.289" gradientUnits="userSpaceOnUse">
<stop stop-color="#843561" stop-opacity="0"/>
<stop offset="1" stop-color="#3A2F4D"/>
</linearGradient>
<linearGradient id="paint9_linear" x1="90.5402" y1="17.3794" x2="87.7575" y2="14.5967" gradientUnits="userSpaceOnUse">
<stop stop-color="#6FA953"/>
<stop offset="1" stop-color="#43765A"/>
</linearGradient>
<linearGradient id="paint10_linear" x1="68.1416" y1="12.4366" x2="64.2057" y2="12.4366" gradientUnits="userSpaceOnUse">
<stop stop-color="#FFCE47"/>
<stop offset="1" stop-color="#FF9356"/>
</linearGradient>
<linearGradient id="paint11_linear" x1="94.5637" y1="40.2643" x2="94.5637" y2="36.3284" gradientUnits="userSpaceOnUse">
<stop stop-color="#7ACBFF"/>
<stop offset="1" stop-color="#45A2E0"/>
</linearGradient>
</defs>
</svg>

<svg width="107" height="107" fill="none" xmlns="http://www.w3.org/2000/svg"><path d="M49.375 30.26c-3.433 3.654-3.433 9.435 0 13.089a9.547 9.547 0 0 0 8.375 2.919c1.296-.191 2.451.834 2.451 2.143v6.997a4.795 4.795 0 0 1-4.795 4.796h-6.997c-1.31 0-2.335-1.156-2.144-2.452a9.548 9.548 0 0 0-2.919-8.375c-3.653-3.433-9.434-3.433-13.088 0a9.547 9.547 0 0 0-2.919 8.375c.191 1.296-.834 2.452-2.143 2.452h-6.998a4.795 4.795 0 0 1-4.796-4.796V48.41c0-1.309-1.157-2.334-2.452-2.143a9.548 9.548 0 0 1-8.376-2.92c-3.432-3.653-3.432-9.434 0-13.088a9.548 9.548 0 0 1 8.376-2.919c1.295.191 2.452-.834 2.452-2.143V18.2a4.795 4.795 0 0 1 4.796-4.796h6.997c1.31 0 2.334-1.157 2.143-2.453a9.549 9.549 0 0 1 2.92-8.375c3.653-3.433 9.434-3.433 13.088 0a9.55 9.55 0 0 1 2.919 8.375c-.191 1.296.834 2.453 2.143 2.453h6.997a4.795 4.795 0 0 1 4.796 4.796v6.997c0 1.309-1.156 2.334-2.452 2.143a9.547 9.547 0 0 0-8.374 2.92z" fill="url(#paint0_linear)"/><path d="M2.574 43.348a9.549 9.549 0 0 0 8.376 2.919c1.295-.191 2.452.834 2.452 2.143v6.997a4.795 4.795 0 0 0 4.796 4.796h6.997c1.309 0 2.334-1.156 2.143-2.452a9.548 9.548 0 0 1 2.92-8.375c3.653-3.432 9.434-3.432 13.088 0a9.547 9.547 0 0 1 2.919 8.376c-.191 1.295.834 2.45 2.143 2.45h6.997a4.795 4.795 0 0 0 4.796-4.795V48.41c0-1.309-1.156-2.334-2.452-2.143a9.548 9.548 0 0 1-8.375-2.92 9.453 9.453 0 0 1-2.197-3.87H.377a9.455 9.455 0 0 0 2.197 3.87z" fill="url(#paint1_linear)"/><path d="M49.375 77.055c-3.433 3.654-3.433 9.434 0 13.088a9.547 9.547 0 0 0 8.375 2.92c1.296-.192 2.451.834 2.451 2.143v6.996a4.796 4.796 0 0 1-4.795 4.796h-6.997c-1.31 0-2.335-1.155-2.144-2.451a9.548 9.548 0 0 0-2.919-8.375c-3.653-3.433-9.434-3.433-13.088 0a9.547 9.547 0 0 0-2.919 8.375c.191 1.296-.834 2.451-2.143 2.451h-6.998a4.796 4.796 0 0 1-4.796-4.796v-6.996c0-1.31-1.157-2.335-2.452-2.144a9.549 9.549 0 0 1-8.376-2.919c-3.432-3.654-3.432-9.434 0-13.088a9.548 9.548 0 0 1 8.376-2.92c1.295.192 2.452-.834 2.452-2.143v-6.996a4.795 4.795 0 0 1 4.796-4.796h6.997c1.31 0 2.334-1.157 2.143-2.453a9.549 9.549 0 0 1 2.92-8.375c3.653-3.433 9.434-3.433 13.088 0a9.55 9.55 0 0 1 2.919 8.375c-.191 1.296.834 2.453 2.143 2.453h6.997a4.795 4.795 0 0 1 4.796 4.796v6.996c0 1.31-1.156 2.335-2.452 2.144a9.546 9.546 0 0 0-8.374 2.919z" fill="url(#paint2_linear)"/><path d="M96.174 77.055c-3.433 3.654-3.433 9.434 0 13.088a9.547 9.547 0 0 0 8.375 2.92c1.296-.192 2.451.834 2.451 2.143v6.996a4.795 4.795 0 0 1-4.795 4.796h-6.997c-1.31 0-2.335-1.155-2.144-2.451a9.547 9.547 0 0 0-2.919-8.375c-3.653-3.433-9.434-3.433-13.088 0a9.548 9.548 0 0 0-2.919 8.375c.19 1.296-.834 2.451-2.144 2.451h-6.996a4.796 4.796 0 0 1-4.796-4.796v-6.996c0-1.31-1.157-2.335-2.453-2.144a9.549 9.549 0 0 1-8.375-2.919c-3.433-3.654-3.433-9.434 0-13.088a9.548 9.548 0 0 1 8.375-2.92c1.296.192 2.453-.834 2.453-2.143v-6.996a4.795 4.795 0 0 1 4.796-4.796h6.996c1.31 0 2.335-1.157 2.144-2.453a9.55 9.55 0 0 1 2.919-8.375c3.654-3.433 9.434-3.433 13.088 0a9.549 9.549 0 0 1 2.92 8.375c-.192 1.296.834 2.453 2.143 2.453h6.997A4.795 4.795 0 0 1 107 64.996v6.996c0 1.31-1.155 2.335-2.451 2.144a9.546 9.546 0 0 0-8.375 2.919z" fill="url(#paint3_linear)"/><path d="M57.75 74.136c1.296.19 2.451-.835 2.451-2.144v-6.997a4.795 4.795 0 0 0-4.795-4.795h-6.997c-1.31 0-2.334-1.157-2.144-2.453a9.55 9.55 0 0 0-2.919-8.376 9.533 9.533 0 0 0-6.5-2.573c-.758 2.05-1.17 4.313-1.17 6.738 0 5.592 1.514 10.612 5.39 14.056l8.895 8.895a9.545 9.545 0 0 1 7.79-2.351z" fill="url(#paint4_linear)"/><path d="M95.207 106.998h6.997a4.795 4.795 0 0 0 4.796-4.795v-6.997c0-1.31-1.156-2.335-2.451-2.144a9.548 9.548 0 0 1-8.376-2.919c-3.432-3.653-3.432-9.434 0-13.088a9.519 9.519 0 0 1 4.687-2.741L76.496 49.949a9.547 9.547 0 0 0-2.358 7.798c.19 1.295-.835 2.453-2.144 2.453h-6.997a4.796 4.796 0 0 0-4.795 4.795v6.997c0 1.31-1.157 2.335-2.453 2.144a9.547 9.547 0 0 0-7.789 2.35l24.359 24.359a9.517 9.517 0 0 1 2.738-4.673c3.653-3.433 9.434-3.433 13.088 0a9.546 9.546 0 0 1 2.919 8.375c-.191 1.296.834 2.451 2.143 2.451z" fill="url(#paint5_linear)"/><path d="M53.5 72.301c10.383 0 18.801-8.417 18.801-18.801 0-10.384-8.418-18.801-18.801-18.801-10.384 0-18.801 8.417-18.801 18.801 0 10.384 8.417 18.801 18.8 18.801z" fill="url(#paint6_linear)"/><path d="M50.433 62.432a6.067 6.067 0 0 1-4.319-1.789l-5.193-5.193a2.78 2.78 0 1 1 3.933-3.932l5.193 5.193c.132.132.283.16.386.16a.535.535 0 0 0 .386-.16l11.328-11.328a2.78 2.78 0 1 1 3.932 3.932L54.751 60.643a6.068 6.068 0 0 1-4.318 1.789z" fill="#fff"/><path d="M2.574 90.143a9.549 9.549 0 0 0 8.376 2.92c1.295-.192 2.452.834 2.452 2.143v6.996a4.796 4.796 0 0 0 4.796 4.796h6.997c1.309 0 2.334-1.155 2.143-2.451a9.547 9.547 0 0 1 2.92-8.375c3.653-3.433 9.434-3.433 13.088 0a9.547 9.547 0 0 1 2.919 8.375c-.191 1.296.834 2.451 2.143 2.451h6.997a4.796 4.796 0 0 0 4.796-4.796v-6.996c0-1.31-1.156-2.335-2.452-2.144a9.548 9.548 0 0 1-8.375-2.919 9.453 9.453 0 0 1-2.197-3.87H.377a9.456 9.456 0 0 0 2.197 3.87z" fill="url(#paint7_linear)"/><path d="M48.996 90.143a9.55 9.55 0 0 0 8.376 2.92c1.295-.192 2.453.834 2.453 2.143v6.996a4.796 4.796 0 0 0 4.795 4.796h6.997c1.31 0 2.334-1.155 2.143-2.451a9.548 9.548 0 0 1 2.92-8.375c3.653-3.433 9.434-3.433 13.088 0a9.547 9.547 0 0 1 2.919 8.375c-.191 1.296.834 2.451 2.143 2.451h6.997a4.796 4.796 0 0 0 4.796-4.796v-6.996c0-1.31-1.156-2.335-2.451-2.144a9.549 9.549 0 0 1-8.376-2.919 9.453 9.453 0 0 1-2.197-3.87h-46.8a9.453 9.453 0 0 0 2.197 3.87z" fill="url(#paint8_linear)"/><path d="M83.466 23.534a4 4 0 0 1 0-5.658l7.669-7.669a4 4 0 0 1 5.658 5.658l-7.67 7.669a4 4 0 0 1-5.657 0z" fill="url(#paint9_linear)"/><path d="M67.439 21.86a4 4 0 0 1-4.001-4V7.013a4 4 0 1 1 8.001 0v10.845a4 4 0 0 1-4 4z" fill="url(#paint10_linear)"/><path d="M85.14 39.562a4 4 0 0 1 4-4.001h10.846a4 4 0 1 1 0 8.001H89.141a4 4 0 0 1-4-4z" fill="url(#paint11_linear)"/><defs><linearGradient id="paint0_linear" x1="19.451" y1="19.454" x2="47.463" y2="47.465" gradientUnits="userSpaceOnUse"><stop stop-color="#7ACBFF"/><stop offset="1" stop-color="#45A2E0"/></linearGradient><linearGradient id="paint1_linear" x1="30.289" y1="44.269" x2="30.289" y2="60.681" gradientUnits="userSpaceOnUse"><stop stop-color="#2F73A0" stop-opacity="0"/><stop offset="1" stop-color="#2F73A0"/></linearGradient><linearGradient id="paint2_linear" x1="19.451" y1="66.248" x2="47.463" y2="94.26" gradientUnits="userSpaceOnUse"><stop stop-color="#FFCE47"/><stop offset="1" stop-color="#FF9356"/></linearGradient><linearGradient id="paint3_linear" x1="57.412" y1="57.41" x2="88.766" y2="88.764" gradientUnits="userSpaceOnUse"><stop stop-color="#FF755C"/><stop offset="1" stop-color="#FF4181"/></linearGradient><linearGradient id="paint4_linear" x1="75.11" y1="89.795" x2="58.277" y2="72.962" gradientUnits="userSpaceOnUse"><stop stop-color="#FF9356" stop-opacity="0"/><stop offset="1" stop-color="#FF755C"/></linearGradient><linearGradient id="paint5_linear" x1="78.785" y1="78.775" x2="52.042" y2="52.032" gradientUnits="userSpaceOnUse"><stop stop-color="#843561" stop-opacity="0"/><stop offset="1" stop-color="#3A2F4D"/></linearGradient><linearGradient id="paint6_linear" x1="45.439" y1="45.439" x2="63.319" y2="63.319" gradientUnits="userSpaceOnUse"><stop stop-color="#E4E08E"/><stop offset="1" stop-color="#6FA953"/></linearGradient><linearGradient id="paint7_linear" x1="30.289" y1="91.471" x2="30.289" y2="104.373" gradientUnits="userSpaceOnUse"><stop stop-color="#FF9356" stop-opacity="0"/><stop offset="1" stop-color="#FF755C"/></linearGradient><linearGradient id="paint8_linear" x1="76.711" y1="96.191" x2="76.711" y2="112.289" gradientUnits="userSpaceOnUse"><stop stop-color="#843561" stop-opacity="0"/><stop offset="1" stop-color="#3A2F4D"/></linearGradient><linearGradient id="paint9_linear" x1="90.54" y1="17.379" x2="87.757" y2="14.597" gradientUnits="userSpaceOnUse"><stop stop-color="#6FA953"/><stop offset="1" stop-color="#43765A"/></linearGradient><linearGradient id="paint10_linear" x1="68.142" y1="12.437" x2="64.206" y2="12.437" gradientUnits="userSpaceOnUse"><stop stop-color="#FFCE47"/><stop offset="1" stop-color="#FF9356"/></linearGradient><linearGradient id="paint11_linear" x1="94.564" y1="40.264" x2="94.564" y2="36.328" gradientUnits="userSpaceOnUse"><stop stop-color="#7ACBFF"/><stop offset="1" stop-color="#45A2E0"/></linearGradient></defs></svg>
